dhis-2/dhis-support/dhis-support-system/src/main/resources/SVGs/microscope_negative.svg

<svg width="48" height="48" viewBox="0 0 48 48" fill="none" xmlns="http://www.w3.org/2000/svg">
<path d="M0 0V47.9994H47.9994V0H0ZM17.9998 3.99995H21.9997V5.99992H23.9997V12.5618C31.0486 14.3938 35.9706 20.7537 35.9766 28.0366C35.9706 30.6576 35.3096 33.2216 34.0876 35.5176C34.6536 36.2205 34.9636 37.0965 34.9646 37.9995C34.9626 38.7025 34.7736 39.3935 34.4176 39.9995C33.9996 40.9995 33.9996 40.9995 34.9996 41.0015V43.9995H11.9998V40.9835C11.9998 39.9925 11.9988 39.9995 12.9898 39.9995H27.5797C27.2237 39.3925 27.0357 38.7025 27.0347 37.9995C27.0367 37.2965 27.2257 36.6055 27.5817 35.9995H15.9998V31.9996H31.4096C31.8876 30.6886 32.1336 29.3046 32.1386 27.9097C32.1316 22.7647 28.8646 18.1898 23.9997 16.5158V21.9997H21.9997V22.9997H17.9998V21.9997H15.9998V5.99992H17.9998V3.99995ZM17.9998 23.9997H21.9997V24.9997H17.9998V23.9997ZM30.9996 36.1345C29.9696 36.1345 29.1346 36.9695 29.1346 37.9995C29.1346 39.0295 29.9696 39.8645 30.9996 39.8645C32.0296 39.8645 32.8646 39.0295 32.8646 37.9995C32.8646 36.9695 32.0296 36.1345 30.9996 36.1345Z" fill="#333333"/>
</svg>

<?xml version="1.0" encoding="UTF-8" standalone="no"?>
<!-- Created with Inkscape (http://www.inkscape.org/) -->
<svg id="svg8" xmlns:rdf="http://www.w3.org/1999/02/22-rdf-syntax-ns#" xmlns="http://www.w3.org/2000/svg" height="48" width="48" version="1.1" xmlns:cc="http://creativecommons.org/ns#" xmlns:dc="http://purl.org/dc/elements/1.1/" viewBox="0 0 12.7 12.7">
 <title id="title4753">UIO-icon</title>
 <metadata id="metadata5">
  <rdf:RDF>
   <cc:Work rdf:about="">
    <dc:format>image/svg+xml</dc:format>
    <dc:type rdf:resource="http://purl.org/dc/dcmitype/StillImage"/>
    <dc:title>UIO-icon</dc:title>
    <dc:creator>
     <cc:Agent>
      <dc:title>Joaquín Urbano</dc:title>
     </cc:Agent>
    </dc:creator>
    <dc:rights>
     <cc:Agent>
      <dc:title>GPL</dc:title>
     </cc:Agent>
    </dc:rights>
   </cc:Work>
  </rdf:RDF>
 </metadata>
 <g id="layer1" transform="translate(0,-284.3)">
  <path id="rect4828" d="m0 0v48h48v-48h-48zm18 4h4v2h2v6.562c7.049 1.832 11.971 8.192 11.977 15.475-0.006 2.621-0.667 5.185-1.889 7.481 0.566 0.703 0.876 1.579 0.877 2.482-0.002 0.703-0.191 1.394-0.547 2-0.418 1-0.418 1 0.582 1.002v2.998h-23v-3.016c0-0.991-0.001-0.984 0.99-0.984h14.59c-0.356-0.607-0.544-1.297-0.545-2 0.002-0.703 0.191-1.394 0.547-2h-11.582v-4h15.41c0.478-1.311 0.724-2.695 0.729-4.09-0.007-5.145-3.274-9.72-8.139-11.394v5.484h-2v1h-4v-1h-2v-16h2v-2zm0 20h4v1h-4v-1zm13 12.135c-1.03 0-1.865 0.835-1.865 1.865s0.835 1.865 1.865 1.865 1.865-0.835 1.865-1.865-0.835-1.865-1.865-1.865z" transform="matrix(.26458 0 0 .26458 0 284.3)" fill="#333"/>
 </g>
</svg>
